X: 1
T: Paddy Cronin's
M: 6/8
L: 1/8
R: jig
K: Gmaj
|: ~G3 DGB | dBe dBG | ~A3 EAB | cAF DFA |
~G3 DGB | dBe dBG | c z c dcA |1 AGF G z D :|2 AGF GBd ||
|: ~g3 fga | gdB GAB | A z a abg | fd^c dfa |
~g3 fga | gdB GAB | c z c dcA |1 AGF GBd :|2 AGF G z D ||
